X:250
T:Steirische Jodler und Taenze Nr. 1 - 48 (48.)
C:traditionell
A:Salzkammergut
S:MIDI erhalten von Christian Amon. Nach einer kopie im besitz von Johann Stoeckl eines manuscriptes. Stoeckl(zitiert von Amon): "diese sammlung wurde 1935 im hause der familie Hohenlohe-Schillingfuerst gefunden. Sie wurde von einem der beiden brueder Steinegger 1866 verfasst. Die originale sind im Ausseer Kammerhofmuseum".
M:3/4
L:1/8
K:G
V:1
DEF |\
GB BF Gd |Fc cG Fe |dF Fc cF |GB BD EF |\
GB BF Gd| Fc cG Fe| dF Fc cF| G4 |*
V:2
FGA|\
Bd dA Bg |Ae ec Ag |fA Ae eA| Bd dF GA |\
Bd dA Bg |Ae ec Ag| fA Ae eA| B4 |*
